X:46
T:Celtic Sessions Breakdown
R:reel
C:Bruce Osborne - July 2002
Z:abc by bosborne@kos.net
M:2/4
L:1/8
K:Fmaj
C/B,/|A,C FA|d/c/A/d/ c/A/F/A/|G/F/G/A/ B/G/E/G/|F/E/F/D/ C/D/C/B,/|\
A,C FA|d/c/A/d/ c/A/F/A/|G/F/G/A/ B/G/E/G/|F/E/F/G/ F:|
|:A/B/|c/F/F/F/ d/F/F/F/|c/A/F/G/ AG/F/|E/C/C/C/ G/C/C/C/|F/E/F/G/ AA/B/|\
c/F/F/F/ d/F/F/F/|c/A/F/G/ AG/F/|E/C/C/C/ G/C/C/C/|E/C/D/E/ F:|
